pro/src/icons/stroke-library.svg

<svg width="48" height="48" viewBox="0 0 48 48" fill="none" xmlns="http://www.w3.org/2000/svg">
<path id="icon" fill-rule="evenodd" clip-rule="evenodd" d="M44.8988 15.7013C44.7228 15.7013 44.5358 15.6574 44.3708 15.5697L24 4.49911L3.62916 15.5697C3.10119 15.8547 2.43023 15.6684 2.13324 15.1313C1.84726 14.6052 2.03425 13.9365 2.57322 13.6406L24 2L45.4268 13.6406C45.9657 13.9256 46.1527 14.5942 45.8668 15.1313C45.6688 15.493 45.2838 15.7013 44.8988 15.7013ZM24.0001 45.9975C23.6152 45.9975 23.2192 45.8659 22.9112 45.6029C22.2842 45.0767 18.5115 42.5119 5.75218 44.167C5.05922 44.2547 4.37726 44.0574 3.88229 43.6189C3.43131 43.2243 3.16733 42.6653 3.16733 42.0844V22.0038C3.16733 21.9513 3.17108 21.8996 3.17834 21.8491V18.5073C3.17834 17.4441 3.99229 16.5233 5.03723 16.4247C11.7139 15.778 20.3594 15.6355 23.6812 18.6388C23.8022 18.7484 23.9122 18.858 24.0222 18.9786C24.1321 18.858 24.2421 18.7484 24.3631 18.6388C27.6849 15.6355 36.3305 15.778 43.0071 16.4247C44.052 16.5233 44.866 17.4441 44.866 18.5073V41.6569C44.866 42.2379 44.602 42.7969 44.151 43.1915C43.7 43.5751 43.1501 43.7724 42.5781 43.7724C42.4773 43.7724 42.3858 43.7632 42.2866 43.7532L42.2865 43.7532L42.2591 43.7505C41.6541 43.6737 41.2362 43.1257 41.3132 42.5228C41.3902 41.92 41.9401 41.5035 42.5451 41.5802C42.5891 41.5802 42.6221 41.5802 42.6441 41.5692V18.595C34.0316 17.7729 27.9049 18.3757 25.8261 20.261C25.3421 20.6995 25.1111 21.1927 25.1111 21.7956L25.1 21.7956V43.0472C26.9778 42.1432 30.593 41.1525 37.2324 41.5035C37.8374 41.5363 38.2993 42.0515 38.2773 42.6544C38.2443 43.2572 37.7164 43.7176 37.1224 43.6957C28.5979 43.2463 25.771 45.0439 25.1001 45.6138C24.7811 45.8659 24.3851 45.9975 24.0001 45.9975ZM22.9076 21.6676C22.8768 21.1237 22.6455 20.6782 22.1963 20.261C20.1174 18.3757 13.9907 17.7729 5.37821 18.595V23.0013C5.37821 23.0538 5.37446 23.1055 5.3672 23.1561V41.9967C5.38919 42.0077 5.42218 42.0077 5.46615 42.0077H5.4662C15.5543 40.688 20.545 41.8968 22.9001 43.0396V21.7956C22.9001 21.7523 22.9027 21.7096 22.9076 21.6676ZM19.1053 23.9987C19.1933 24.0206 19.2703 24.0316 19.3583 24.0316C19.8532 24.0316 20.3042 23.6918 20.4252 23.1876C20.5682 22.6066 20.2052 22.0147 19.6113 21.8723C17.1364 21.2804 12.1757 20.9844 8.75487 21.4777C8.1499 21.5653 7.73193 22.1134 7.81992 22.7163C7.90792 23.3191 8.44689 23.7247 9.06285 23.6479C12.1867 23.1985 16.8614 23.4726 19.1053 23.9987ZM28.6417 24.0316C28.1468 24.0316 27.6958 23.6918 27.5748 23.1876C27.4318 22.5957 27.8058 22.0038 28.3887 21.8723C30.8746 21.2914 35.8243 20.9954 39.2451 21.4777C39.8501 21.5654 40.2681 22.1244 40.1801 22.7163C40.0921 23.3191 39.5531 23.7357 38.9371 23.648C35.8133 23.1986 31.1386 23.4726 28.8947 23.9987C28.8067 24.0207 28.7297 24.0316 28.6417 24.0316ZM27.5748 27.3528C27.6958 27.8571 28.1468 28.1968 28.6417 28.1968C28.7208 28.1968 28.7911 28.188 28.8684 28.1782L28.8947 28.1749L28.9707 28.1571C30.0358 27.9077 31.3621 27.5971 33.3495 27.7255C33.9764 27.7694 34.4824 27.298 34.5154 26.6952C34.5484 26.0923 34.0864 25.5662 33.4815 25.5333C31.1276 25.3908 29.5437 25.7635 28.3887 26.0375C27.8058 26.1691 27.4318 26.761 27.5748 27.3528ZM19.3583 28.1968C19.2703 28.1968 19.1933 28.1858 19.1053 28.1639C16.8614 27.6377 12.1867 27.3637 9.06285 27.8131C8.44689 27.8898 7.90792 27.4843 7.81992 26.8814C7.73193 26.2786 8.1499 25.7305 8.75487 25.6428C12.1757 25.1496 17.1364 25.4455 19.6113 26.0374C20.2052 26.1799 20.5682 26.7718 20.4252 27.3528C20.3042 27.857 19.8532 28.1968 19.3583 28.1968ZM7.81992 31.0467C7.89692 31.5947 8.36989 31.9893 8.90886 31.9893C8.95286 31.9893 9.00786 31.9784 9.06285 31.9674C10.8008 31.7153 13.2426 31.6715 15.6075 31.8468C16.2014 31.8907 16.7404 31.4413 16.7844 30.8384C16.8284 30.2356 16.3774 29.7094 15.7725 29.6656C13.2206 29.4902 10.6688 29.5341 8.75487 29.8081C8.1499 29.8958 7.73193 30.4438 7.81992 31.0467Z" fill="currentColor"/>
</svg>

<svg xmlns="http://www.w3.org/2000/svg" width="48" height="48" fill="none"><path id="icon" fill="currentColor" fill-rule="evenodd" d="M44.899 15.701a1.14 1.14 0 0 1-.528-.131L24 4.5 3.63 15.57a1.11 1.11 0 0 1-1.497-.439 1.1 1.1 0 0 1 .44-1.49L24 2l21.427 11.64a1.095 1.095 0 0 1-.528 2.061M24 45.998c-.385 0-.78-.132-1.089-.395-.627-.526-4.4-3.091-17.159-1.436-.693.088-1.375-.11-1.87-.548a2.05 2.05 0 0 1-.715-1.535v-20.08q0-.079.011-.155v-3.342c0-1.063.814-1.984 1.86-2.082 6.676-.647 15.321-.79 18.643 2.214.121.11.231.219.341.34.11-.121.22-.23.341-.34 3.322-3.003 11.968-2.861 18.644-2.214 1.045.098 1.859 1.02 1.859 2.082v23.15a2.05 2.05 0 0 1-.715 1.535 2.4 2.4 0 0 1-1.864.561l-.028-.002a1.09 1.09 0 0 1-.946-1.228 1.093 1.093 0 0 1 1.232-.943c.044 0 .077 0 .1-.01V18.594c-8.613-.822-14.74-.22-16.819 1.666-.484.439-.715.932-.715 1.535H25.1v21.251c1.878-.904 5.493-1.894 12.132-1.543a1.11 1.11 0 0 1 1.045 1.15 1.117 1.117 0 0 1-1.155 1.042c-8.524-.45-11.351 1.348-12.022 1.918a1.8 1.8 0 0 1-1.1.384m-1.092-24.33c-.031-.544-.263-.99-.712-1.407-2.079-1.885-8.205-2.488-16.818-1.666v4.406q0 .079-.01.155v18.84a.24.24 0 0 0 .098.012c10.088-1.32 15.079-.111 17.434 1.032V21.796q0-.065.008-.128m-3.803 2.33c.088.023.165.034.253.034a1.1 1.1 0 0 0 1.067-.844 1.09 1.09 0 0 0-.814-1.316c-2.475-.592-7.435-.888-10.856-.394a1.096 1.096 0 1 0 .308 2.17c3.124-.45 7.798-.175 10.042.35m9.537.034a1.1 1.1 0 0 1-1.067-.844 1.09 1.09 0 0 1 .814-1.316c2.486-.58 7.435-.877 10.856-.394.605.087 1.023.646.935 1.238a1.09 1.09 0 0 1-1.243.932c-3.124-.45-7.798-.175-10.042.35a1 1 0 0 1-.253.034m-1.067 3.32a1.1 1.1 0 0 0 1.067.845c.079 0 .15-.009.226-.019l.027-.003.076-.018c1.065-.25 2.391-.56 4.378-.431a1.084 1.084 0 0 0 1.166-1.03 1.103 1.103 0 0 0-1.034-1.163c-2.353-.142-3.937.23-5.092.505a1.09 1.09 0 0 0-.814 1.315m-8.217.845c-.088 0-.165-.011-.253-.033-2.244-.526-6.918-.8-10.042-.35a1.096 1.096 0 1 1-.308-2.171c3.42-.493 8.381-.198 10.856.394.594.143.957.735.814 1.316a1.1 1.1 0 0 1-1.067.844M7.82 31.047a1.1 1.1 0 0 0 1.089.942c.044 0 .099-.01.154-.022 1.738-.252 4.18-.295 6.544-.12a1.1 1.1 0 0 0 1.177-1.009 1.094 1.094 0 0 0-1.011-1.172c-2.552-.176-5.104-.132-7.018.142a1.09 1.09 0 0 0-.935 1.239" clip-rule="evenodd"/></svg>
